images/percent.svg

<?xml version="1.0" encoding="utf-8"?>
<!-- Generator: Adobe Illustrator 21.1.0, SVG Export Plug-In . SVG Version: 6.00 Build 0)  -->
<svg version="1.1" id="Layer_1" xmlns="http://www.w3.org/2000/svg" xmlns:xlink="http://www.w3.org/1999/xlink" x="0px" y="0px"
	 viewBox="0 0 110 156" style="enable-background:new 0 0 110 156;" xml:space="preserve">
<style type="text/css">
	.st0{fill:#FFFFFF;}
</style>
<title>Artboard 2</title>
<desc>Created with Sketch.</desc>
<g id="Page-1">
	<g id="Artboard-2">
		<path id="percent" class="st0" d="M105.9,0L32.8,102.1H7.6L80.9,0H105.9z M85.8,89.9c1.8,0,3.2-0.7,4.4-2c1.2-1.3,1.8-3,1.8-5.2
			c0-2.1-0.6-3.9-1.8-5.3c-1.2-1.4-2.6-2.1-4.3-2.1c-1.7,0-3.1,0.7-4.3,2.1c-1.2,1.4-1.8,3.2-1.8,5.3c0,2.1,0.6,3.9,1.7,5.2
			C82.6,89.3,84,89.9,85.8,89.9z M101.2,97.3c-4.1,3.9-9.2,5.9-15.4,5.9c-6.2,0-11.3-2-15.4-6s-6.1-8.8-6.1-14.5s2-10.5,6.1-14.5
			s9.2-6,15.4-6c6.2,0,11.3,2,15.4,6s6.1,8.9,6.1,14.6C107.4,88.5,105.3,93.4,101.2,97.3z M28.2,30.2c1.8,0,3.2-0.7,4.4-2
			s1.8-3,1.8-5.2s-0.6-3.9-1.8-5.3s-2.6-2.1-4.3-2.1c-1.7,0-3.1,0.7-4.3,2.1c-1.2,1.4-1.8,3.2-1.8,5.3s0.6,3.9,1.7,5.2
			S26.5,30.2,28.2,30.2z M43.7,37.6c-4.1,3.9-9.2,5.9-15.4,5.9s-11.3-2-15.4-6S6.8,28.7,6.8,23s2-10.5,6.1-14.5s9.2-6,15.4-6
			s11.3,2,15.4,6s6.1,8.9,6.1,14.6S47.8,33.7,43.7,37.6z M20.6,156.4c-5.8,0-10.7-1.9-14.6-5.8C2,146.8,0,142,0,136.2
			s2-10.6,5.9-14.4c4-3.9,8.8-5.8,14.6-5.8s10.7,1.9,14.6,5.8c4,3.9,5.9,8.7,5.9,14.4s-2,10.6-5.9,14.4
			C31.2,154.5,26.3,156.4,20.6,156.4z M28.8,127.3c-2.2-2.5-5-3.7-8.3-3.7s-6,1.2-8.3,3.7S9,132.8,9,136.3c0,3.5,1.1,6.5,3.4,8.9
			s5,3.7,8.3,3.7s6-1.2,8.3-3.7s3.4-5.4,3.4-8.9C32.2,132.8,31.1,129.8,28.8,127.3z M75.4,116.9v7.7H57.2v8.5h17.2v7.7H57.2v15.3
			h-8.7v-39.1H75.4z M109.6,116.9v7.7H91.5v8.5h17.2v7.7H91.5v15.3h-8.7v-39.1H109.6z"/>
	</g>
</g>
</svg>

<?xml version="1.0" encoding="UTF-8" standalone="no"?>
<svg width="127px" height="157px" viewBox="0 0 127 157" version="1.1" xmlns="http://www.w3.org/2000/svg" xmlns:xlink="http://www.w3.org/1999/xlink">
    <!-- Generator: Sketch 46.2 (44496) - http://www.bohemiancoding.com/sketch -->
    <title>Combined Shape</title>
    <desc>Created with Sketch.</desc>
    <defs></defs>
    <g id="Page-1" stroke="none" stroke-width="1" fill="none" fill-rule="evenodd">
        <g id="percent" fill-rule="nonzero" fill="#FFFFFF">
            <path d="M105.9,0 L32.8,102.1 L7.6,102.1 L80.9,0 L105.9,0 Z M85.8,89.9 C87.6,89.9 89,89.2 90.2,87.9 C91.4,86.6 92,84.9 92,82.7 C92,80.6 91.4,78.8 90.2,77.4 C89,76 87.6,75.3 85.9,75.3 C84.2,75.3 82.8,76 81.6,77.4 C80.4,78.8 79.8,80.6 79.8,82.7 C79.8,84.8 80.4,86.6 81.5,87.9 C82.6,89.3 84,89.9 85.8,89.9 Z M101.2,97.3 C97.1,101.2 92,103.2 85.8,103.2 C79.6,103.2 74.5,101.2 70.4,97.2 C66.3,93.2 64.3,88.4 64.3,82.7 C64.3,77 66.3,72.2 70.4,68.2 C74.5,64.2 79.6,62.2 85.8,62.2 C92,62.2 97.1,64.2 101.2,68.2 C105.3,72.2 107.3,77.1 107.3,82.8 C107.4,88.5 105.3,93.4 101.2,97.3 Z M28.2,30.2 C30,30.2 31.4,29.5 32.6,28.2 C33.8,26.9 34.4,25.2 34.4,23 C34.4,20.8 33.8,19.1 32.6,17.7 C31.4,16.3 30,15.6 28.3,15.6 C26.6,15.6 25.2,16.3 24,17.7 C22.8,19.1 22.2,20.9 22.2,23 C22.2,25.1 22.8,26.9 23.9,28.2 C25,29.5 26.5,30.2 28.2,30.2 Z M43.7,37.6 C39.6,41.5 34.5,43.5 28.3,43.5 C22.1,43.5 17,41.5 12.9,37.5 C8.8,33.5 6.8,28.7 6.8,23 C6.8,17.3 8.8,12.5 12.9,8.5 C17,4.5 22.1,2.5 28.3,2.5 C34.5,2.5 39.6,4.5 43.7,8.5 C47.8,12.5 49.8,17.4 49.8,23.1 C49.8,28.8 47.8,33.7 43.7,37.6 Z M20.6,156.4 C14.8,156.4 9.9,154.5 6,150.6 C2,146.8 0,142 0,136.2 C0,130.4 2,125.6 5.9,121.8 C9.9,117.9 14.7,116 20.5,116 C26.3,116 31.2,117.9 35.1,121.8 C39.1,125.7 41,130.5 41,136.2 C41,141.9 39,146.8 35.1,150.6 C31.2,154.5 26.3,156.4 20.6,156.4 Z M28.8,127.3 C26.6,124.8 23.8,123.6 20.5,123.6 C17.2,123.6 14.5,124.8 12.2,127.3 C9.9,129.8 9,132.8 9,136.3 C9,139.8 10.1,142.8 12.4,145.2 C14.7,147.6 17.4,148.9 20.7,148.9 C24,148.9 26.7,147.7 29,145.2 C31.3,142.7 32.4,139.8 32.4,136.3 C32.2,132.8 31.1,129.8 28.8,127.3 Z M75.4,116.9 L75.4,124.6 L57.2,124.6 L57.2,133.1 L74.4,133.1 L74.4,140.8 L57.2,140.8 L57.2,156.1 L48.5,156.1 L48.5,117 L75.4,117 L75.4,116.9 Z M109.6,116.9 L109.6,124.6 L91.5,124.6 L91.5,133.1 L108.7,133.1 L108.7,140.8 L91.5,140.8 L91.5,156.1 L82.8,156.1 L82.8,117 L109.6,117 L109.6,116.9 Z M121.474,126.576 L121.702,129.768 L117.446,129.768 L117.674,126.576 L114.976,128.438 L113.038,124.98 L116.23,123.384 L113,121.788 L114.976,118.406 L117.674,120.192 L117.446,117 L121.702,117 L121.474,120.192 L124.172,118.406 L126.148,121.788 L122.918,123.384 L126.11,124.98 L124.172,128.438 L121.474,126.576 Z" id="Combined-Shape"></path>
        </g>
    </g>
</svg>
